icons/svgs/person-walking-outline.svg

<svg width="24" height="24" viewBox="0 0 24 24" fill="none" xmlns="http://www.w3.org/2000/svg">
<path d="M12.5 3.875C12.5 3.21094 12.8516 2.625 13.4375 2.27344C13.9844 1.92188 14.7266 1.92188 15.3125 2.27344C15.8594 2.625 16.25 3.21094 16.25 3.875C16.25 4.57812 15.8594 5.16406 15.3125 5.51562C14.7266 5.86719 13.9844 5.86719 13.4375 5.51562C12.8516 5.16406 12.5 4.57812 12.5 3.875ZM12.9297 8.91406L11.7578 12.4297C11.7188 12.5469 11.7578 12.7031 11.875 12.7812L12.5 13.2891L13.7891 9.22656C13.7891 9.22656 13.7891 9.22656 13.7891 9.1875C13.5156 9.07031 13.2422 8.95312 12.9297 8.91406ZM15.1953 10.9844L14.0625 14.5781L16.0156 16.1406C16.2891 16.375 16.4844 16.6875 16.5625 17L17.4609 20.8672C17.5781 21.375 17.2656 21.8828 16.7578 22C16.25 22.1172 15.7422 21.8047 15.625 21.2969L14.7656 17.5469L10.7031 14.2266C10 13.6406 9.6875 12.7031 10 11.8438L10.8984 9.1875C9.92188 9.53906 9.14062 10.2812 8.71094 11.2578L8.32031 12.0781C8.125 12.5469 7.57812 12.7812 7.10938 12.5469C6.64062 12.3516 6.40625 11.8047 6.64062 11.3359L6.99219 10.4766C7.65625 8.99219 8.94531 7.82031 10.5078 7.3125C11.0938 7.11719 11.7188 7 12.3438 7H12.5391C14.5703 7 16.4062 8.36719 16.9531 10.3594L17.3828 11.8438L18.4766 12.8984C18.8281 13.2891 18.8281 13.875 18.4766 14.2266C18.0859 14.6172 17.5 14.6172 17.1484 14.2266L16.0156 13.0938C15.8203 12.9375 15.6641 12.7031 15.5859 12.4297L15.1953 10.9844ZM9.17969 17.7422L10.1172 15.3984L11.6406 16.6094L10.8984 18.4844C10.8203 18.6797 10.7031 18.875 10.5469 19.0312L7.85156 21.7266C7.46094 22.1172 6.875 22.1172 6.52344 21.7266C6.13281 21.375 6.13281 20.7891 6.52344 20.4375L9.17969 17.7422Z" fill="black"/>
</svg>

<svg xmlns="http://www.w3.org/2000/svg" width="24" height="24" fill="currentColor" class="icon-person-walking-outline" viewBox="0 0 24 24">
  <mask id="a" width="13" height="21" x="6" y="2" maskUnits="userSpaceOnUse" style="mask-type:alpha">
    <path d="M12.5 3.875c0-.664.352-1.25.938-1.602.546-.351 1.289-.351 1.874 0 .547.352.938.938.938 1.602 0 .703-.39 1.29-.937 1.64-.586.352-1.329.352-1.876 0a1.87 1.87 0 0 1-.937-1.64m.43 5.04-1.172 3.515a.315.315 0 0 0 .117.351l.625.508 1.29-4.062v-.04c-.274-.117-.548-.234-.86-.273m2.265 2.07-1.133 3.593 1.954 1.563c.273.234.468.547.547.859l.898 3.867a.942.942 0 1 1-1.836.43l-.86-3.75-4.062-3.32C10 13.64 9.688 12.703 10 11.844l.898-2.656a3.8 3.8 0 0 0-2.187 2.07l-.39.82c-.196.469-.743.703-1.212.469-.468-.195-.703-.742-.468-1.211l.351-.86a5.87 5.87 0 0 1 3.516-3.164A5.9 5.9 0 0 1 12.344 7h.195a4.594 4.594 0 0 1 4.414 3.36l.43 1.484 1.094 1.054c.351.391.351.977 0 1.329-.391.39-.977.39-1.329 0l-1.132-1.133a1.3 1.3 0 0 1-.43-.664zM9.18 17.741l.937-2.344 1.524 1.211-.743 1.875a1.6 1.6 0 0 1-.351.547l-2.695 2.696c-.391.39-.977.39-1.329 0a.856.856 0 0 1 0-1.29z"/>
  </mask>
  <g mask="url(#a)">
    <path d="M0 0h24v24H0z"/>
  </g>
</svg>
